X: 1
T: the Black Cat Jig
C: Daniel Compton 1996
R: jig
S: The Portland Collection v.1 p.31
Z: 2016 John Chambers <jc:trillian.mit.edu>
N: Suggested tune for The Bishop's Halloween (with "the Witch Under the Stairs")
M: 6/8
L: 1/8
K: Dm
A |\
"Dm"d2A DEF | "A7"ABA E2F | "Gm"G3 GFE | "A7"A,^CE GFE |\
"Dm"DdA DEF | "A7"ABA E2F | "Gm "G3 "A7"A,^CE | GFE "Dm"D2 :|
|: A |\
"Dm"d2e fgf | "A7"e^cA Ace | "Gm"g3 gfe | gba "A7"gfe |\
"Dm"d2e f3 | "A"ea^g a3 | A^ce Ace | "A7"gfe "Dm"d2 :|
